X:11
T:Diatonic Thirds Sequential
T: Version 1 (Beginner)
M:4/4
L:1/4
Q:1/4=80
K:C
   C/D/  E  C  E| D/E/  F  D  F| E/F/  G   E  G | F/G/   A  F  A|
w:do re mi do mi|re mi fa re fa|mi fa sol mi sol|fa sol la fa la|
    G/A/  B  G   B| A/B/  c  A  c| B/c/  d  B  d| c4 ||
w:sol la ti sol ti|la ti do la do|ti do re ti re| do ||

